X:1
T:O Morrow Land
T:O Morrow Land
T:Hubert Platt Main
T:Frances Jane (Fanny) Crosby, 1898
T:Public Domain Courtesy of the Cyber Hymnal™
C:Hubert Platt Main
Z:Public Domain
Z:Courtesy of the Cyber Hymnal™
%%score ( 1 2 ) ( 3 4 )
L:1/8
Q:1/4=92
M:3/4
K:Db
V:1 treble 
V:2 treble 
V:3 bass 
V:4 bass 
V:1
 [DF][DF] D | [DA]3 [DB] [DB][DF] | [DA]4 [Fd]2 | [Gc]3 [GB] [EA][CE] | [DF]3 [DA] [DA]F | %5
w: 1.~O mor- row|land, a- bid- ing|land, We’re|tra- veling home to|thee; Be- yond the|
w: 2.~O mor- row|land, a- bid- ing|land, No|tears of sor- row|there; No ach- ing|
w: 3.~O mor- row|land, a- bid- ing|land, We|soon shall reach thy|shore, And clasp the|
 [=Ec]3 [CA] [CA]F | [Ed]3 [Ec] [FB][Dc] | [CA]4 [DB]2 | [CA]4 ||"^Refrain" [DF]2 | %10
w: sha- dow and the|shade, Thy ra- diant|hills we|see!||
w: hearts, nor wea- ry|eyes; With- in thy|dwell- ing|fair.|We’re|
w: hands of those we|love, To meet, and|part no|more.||
 [EG][Ge] [GB]2 [Gc]2 | (d2 A2) [Ad]2 | [Gc]3 [GB] [EA][CG] | [DF]4 D2 | %14
w: ||||
w: tra- veling home to|thee; * We’re|tra- veling home to|thee; And|
w: ||||
 [DF]>[DF] [CG][DA] [D_c][DB] | [DB]3 [=EB] [Ec][Ed] | (dB [Gc]2) !fermata![Ge]2 | [Fd]4 |] %18
w: ||||
w: soon, be- yond the ri- ver’s|brink, Thy glo- ry|we * * shall|see.|
w: ||||
V:2
 x2 D | x6 | x6 | x6 | x5 F | x5 F | x6 | x6 | x4 || x2 | x6 | F4 x2 | x6 | x4 D2 | x6 | x6 | %16
 F2 x4 | x4 |] %18
V:3
 [D,A,][D,A,] [D,F,] | [D,F,]3 [B,,F,] [B,,F,][B,,B,] | [D,F,]4 [D,A,]2 | %3
 [A,,E]3 [A,,D] [A,,C][A,,A,] | [D,A,]3 [D,F,] [D,F,][B,,A,] | [C,=G,]3 [F,A,] [F,A,][D,A,] | %6
 [B,,=G,]3 [C,A,] [D,A,][D,F,] | (E,3 F,) [E,=G,]2 | [A,,A,]4 || [D,A,]2 | %10
 [A,,C][A,,C] [A,,C]2 [A,,A,]2 | (A,2 D2) [F,D]2 | [A,E]3 [A,D] [A,,C][A,,A,] | [D,A,]4 [D,F,]2 | %14
 [D,A,]>[D,A,] [E,A,][F,_C] [F,A,][G,B,] | [G,B,]3 [=G,D] [G,C][G,B,] | (D2 E2) !fermata![A,,C]2 | %17
 [D,A,]4 |] %18
V:4
 x3 | x6 | x6 | x6 | x6 | x6 | x6 | E,4 x2 | x4 || x2 | x6 | D,4 x2 | x6 | x6 | x6 | x6 | A,4 x2 | %17
 x4 |] %18

